X:1
T:On Jordan’s Stormy Banks I Stand
T:On Jordan’s Stormy Banks I Stand
T:Matilda T. Durham, 1835, arr. Rigdon McIntosh
T:Samuel Stennett, 1787
T:Public Domain Courtesy of the Cyber Hymnal™
T:Public Domain Courtesy of the Cyber Hymnal™
C:Matilda T. Durham, 1835, arr. Rigdon McIntosh
Z:Public Domain
Z:Courtesy of the Cyber Hymnal™
%%score ( 1 2 ) ( 3 4 )
L:1/8
Q:1/4=108
M:4/4
K:F
V:1 treble 
V:2 treble 
V:3 bass 
V:4 bass 
V:1
 (FG) | [FA]2 [FA]2 ([FA][GB]) [Ac]2 | [GB]2 [GB]2 ([GB][FA]) [EG]2 | [FA]2 [FA]2 | (AB) [Fc]2 | %5
w: 1.~On *|Jor- dan’s storm- * y|banks I stand, * And|cast a|wish- * ful|
w: 2.~O *|the trans- port- * ing,|rap- turous scene, * That|ris- es|to * my|
w: 3.~There *|gen- erous fruits * that|ne- ver fail, * On|trees im-|mor- * tal|
w: 4.~O’er *|all those wide * ex-|tend- ed plains * Shines|one e-|ter- * nal|
w: 5.~No *|chill- ing winds * or|poi- sonous breath * Can|reach that|health- * ful|
w: 6.~When *|I shall reach * that|hap- py place, * I’ll|be for-|ev- * er|
w: 7.~Filled *|with de- light * my|rap- tured soul * Would|here no|long- * er|
 [EG]6 (AG) | F2 (FG) [FA]2 [GB]2 | [Ac]2 [Af]2 [Ac]2 (cB) | [FA]2 (AF) [EG]2 [EG]2 | [CF]6 || %10
w: eye To *|Ca- naan’s * fair and|hap- py land, Where *|my pos- * sess- ions|lie.|
w: sight! Sweet *|fields a- * rrayed in|liv- ing green, And *|riv- ers * of de-|light!|
w: grow; There *|rocks and * hills, and|brooks and vales, With *|milk and * ho- ney|flow.|
w: day; There *|God the * Son for-|ev- er reigns, And *|scat- ters * night a-|way.|
w: shore; Sick- *|ness and * sor- row,|pain and death, Are *|felt and * feared no|more.|
w: blest, For *|I shall * see my|Fa- ther’s face, And *|in His * bo- som|rest.|
w: stay; Though *|Jor- dan’s * waves a-|round me roll, Fear- *|less I’d * launch a-|way.|
"^Refrain" F[FG] | [FA]2 [FA]>[FA] ([FA][GB]) [Ac]2 | ([GB]3 [Ac][GB][FA])[EG][EG] | %13
w: |||
w: |||
w: I am|bound for the prom- * ised|land, * * * I am|
w: |||
w: |||
w: |||
w: |||
 [FA]2 [FA]>[FA] (AB) [Fc]2 | [EG]6 (AG) | F2 (FG) [FA]2 [GB]2 | [Ac]2 [Af]2 [Ac]2 [Fc][FB] | %17
w: ||||
w: ||||
w: bound for the prom- * ised|land; Oh *|who will * come and|go with me? I am|
w: ||||
w: ||||
w: ||||
w: ||||
 [FA]2 [FA]F [EG]2 [EG]2 | [CF]6 |] %19
w: ||
w: ||
w: bound for the prom- ised|land.|
w: ||
w: ||
w: ||
w: ||
V:2
 F2 | x8 | x8 | x4 | F2 x2 | x6 E2 | F2 F2 x4 | x6 F2 | x2 F2 x4 | x6 || F x | x8 | x8 | x4 F2 x2 | %14
 x6 E2 | x8 | x8 | x8 | x6 |] %19
V:3
 (A,B,) | [F,C]2 [F,C]2 [F,C]2 [F,C]2 | [C,C]2 [C,C]2 [C,C]2 [C,C]2 | [F,C]2 [F,C]2 | %4
 [F,C]2 [A,,C]2 | [C,C]6 (CB,) | [F,A,]2 (A,B,) [F,C]2 [F,C]2 | %7
 [F,C]2 [F,C]2 [F,C]2 ([A,,C][B,,D]) | [C,C]2 (CA,) [C,B,]2 [C,B,]2 | [F,A,]6 || [F,A,][F,B,] | %11
 [F,C]2 [F,C]>[F,C] [F,C]2 [F,C]2 | [C,C]6 [C,C][C,C] | [F,C]2 [F,C]>[F,C] [F,C]2 [A,,C]2 | %14
 [C,C]6 (CB,) | [F,A,]2 (A,B,) [F,C]2 [F,C]2 | [F,C]2 [F,C]2 [F,C]2 [A,,F][B,,D] | %17
 [C,C]2 [C,C][C,A,] [C,C]2 [C,B,]2 | [F,A,]6 |] %19
V:4
 F,2 | x8 | x8 | x4 | x4 | x6 C,2 | x2 F,2 x4 | x8 | x2 C,2 x4 | x6 || x2 | x8 | x8 | x8 | x6 C,2 | %15
 x2 F,2 x4 | x8 | x8 | x6 |] %19

